svg/white/trtl.svg

<svg width="32" height="32" viewBox="0 0 32 32" version="1.1" xmlns="http://www.w3.org/2000/svg" xmlns:xlink="http://www.w3.org/1999/xlink"><title>svg/white/trtl</title><desc>Created with Sketch.</desc><g id="white/trtl" stroke="none" stroke-width="1" fill="none" fill-rule="evenodd"><path d="M16,32 C7.163444,32 0,24.836556 0,16 C0,7.163444 7.163444,0 16,0 C24.836556,0 32,7.163444 32,16 C32,24.836556 24.836556,32 16,32 Z M16.0058511,5.59929078 C16.3999761,5.599217 16.7871696,5.70294396 17.1284752,5.90003546 L24.2878369,10.0340071 C24.9825381,10.4350931 25.410483,11.1763387 25.410461,11.9785106 L25.410461,20.4126241 C25.410483,21.214796 24.9825381,21.9560417 24.2878369,22.3571277 L17.1269149,26.4918794 C16.4322327,26.8929544 15.5763489,26.8929544 14.8816667,26.4918794 L7.72074468,22.3571277 C7.02610231,21.9559828 6.59817903,21.2147745 6.59812057,20.4126241 L6.59812057,11.9789007 C6.59817903,11.1767503 7.02610231,10.435542 7.72074468,10.0343972 L14.8816667,5.89964539 C15.2229722,5.70255389 15.6101657,5.59882693 16.0042908,5.59890071 L16.0058511,5.59929078 Z M16.0042908,4.03861702 C15.3363138,4.03884853 14.6801328,4.21466413 14.1015248,4.54843972 L6.94060284,8.68319149 C5.76480424,9.3646307 5.04007342,10.6199096 5.03783688,11.9789007 L5.03783688,20.4126241 C5.03993461,21.7717546 5.76468396,23.0272142 6.94060284,23.7087234 L14.1015248,27.8434752 C15.2789605,28.523268 16.7296211,28.523268 17.9070567,27.8434752 L25.0679787,23.7087234 C26.2438358,23.0273426 26.968588,21.7720267 26.9707447,20.4130142 L26.9707447,11.9789007 C26.9687268,10.6197488 26.2439561,9.36425219 25.0679787,8.68280142 L17.9070567,4.54804965 C17.3284488,4.21427406 16.6722678,4.03845846 16.0042908,4.03822695 L16.0042908,4.03861702 Z M20.8942199,15.9490426 L19.2321277,15.9490426 C19.0649291,15.9490747 18.9104433,16.0382869 18.826844,16.1830851 L17.9643972,17.6758865 C17.8807818,17.8207126 17.8807818,17.9991456 17.9643972,18.1439716 L18.9988652,19.9355674 C19.8520585,18.7237709 20.4929785,17.3757152 20.8942199,15.9490426 Z M19.2329078,15.1689007 L21.0892553,15.1689007 C21.2653488,14.3497296 21.3627889,13.5156103 21.3802482,12.6779078 C21.3841231,12.5029499 21.2900797,12.3404429 21.1364539,12.2566312 L19.0402128,11.1125532 L17.9655674,12.9739716 C17.881952,13.1187977 17.881952,13.2972307 17.9655674,13.4420567 L18.8276241,14.9348582 C18.9112234,15.0796564 19.0657092,15.1688686 19.2329078,15.1689007 Z M15.1266312,17.5198582 L16.8846809,17.5198582 C17.0518794,17.519826 17.2063653,17.4306138 17.2899645,17.2858156 L18.1516312,15.7930142 C18.2352466,15.6481881 18.2352466,15.4697551 18.1516312,15.3249291 L17.2899645,13.8321277 C17.2063653,13.6873294 17.0518794,13.5981172 16.8846809,13.5980851 L15.1266312,13.5980851 C14.9594326,13.5981172 14.8049468,13.6873294 14.7213475,13.8321277 L13.8596809,15.3249291 C13.7760655,15.4697551 13.7760655,15.6481881 13.8596809,15.7930142 L14.7213475,17.2858156 C14.8049468,17.4306138 14.9594326,17.519826 15.1266312,17.5198582 Z M12.7784043,15.1689007 C12.9456028,15.1688686 13.1000887,15.0796564 13.1836879,14.9348582 L14.0453546,13.4420567 C14.12897,13.2972307 14.12897,13.1187977 14.0453546,12.9739716 L12.9707092,11.1125532 L10.8744681,12.2570213 C10.7208423,12.3408329 10.6267988,12.50334 10.6306738,12.6782979 C10.6482613,13.5160128 10.7458321,14.3501323 10.9220567,15.1692908 L12.7784043,15.1689007 Z M16.2301418,9.57840426 C16.0903518,9.50209012 15.9213504,9.50209012 15.7815603,9.57840426 L13.6560638,10.7388652 L14.7217376,12.5842908 C14.8053369,12.729089 14.9598227,12.8183012 15.1270213,12.8183333 L16.8850709,12.8183333 C17.0522695,12.8183012 17.2067553,12.729089 17.2903546,12.5842908 L18.3560284,10.7388652 L16.2301418,9.57840426 Z M11.115922,15.9490426 C11.5171562,17.3757178 12.1580768,18.7237748 13.0112766,19.9355674 L14.0457447,18.1439716 C14.12936,17.9991456 14.12936,17.8207126 14.0457447,17.6758865 L13.184078,16.1830851 C13.1004787,16.0382869 12.9459929,15.9490747 12.7787943,15.9490426 L11.115922,15.9490426 Z M15.1266312,18.3 C14.9594326,18.3000321 14.8049468,18.3892443 14.7213475,18.5340426 L13.5218794,20.6131206 C14.1678118,21.4162152 14.9055127,22.1409556 15.7199291,22.7725532 C15.8886963,22.9033233 16.1245661,22.9033233 16.2933333,22.7725532 C17.1077474,22.1409529 17.845448,21.4162128 18.491383,20.6131206 L17.2911348,18.5340426 C17.2075355,18.3892443 17.0530496,18.3000321 16.8858511,18.3 L15.1266312,18.3 Z" id="Combined-Shape" fill="#FFF" fill-rule="nonzero"/></g></svg>

<svg width="32" height="32" viewBox="0 0 32 32" xmlns="http://www.w3.org/2000/svg"><path d="M16 32C7.163 32 0 24.837 0 16S7.163 0 16 0s16 7.163 16 16-7.163 16-16 16zm.006-26.4c.394 0 .781.103 1.122.3l7.16 4.134a2.245 2.245 0 0 1 1.122 1.945v8.434c0 .802-.427 1.543-1.122 1.944l-7.161 4.135a2.245 2.245 0 0 1-2.245 0L7.72 22.357a2.246 2.246 0 0 1-1.123-1.944v-8.434c0-.802.428-1.543 1.123-1.945L14.88 5.9c.342-.197.73-.301 1.123-.301h.002zm-.002-1.561a3.81 3.81 0 0 0-1.902.51L6.94 8.682a3.816 3.816 0 0 0-1.903 3.296v8.434a3.816 3.816 0 0 0 1.903 3.296l7.16 4.134c1.178.68 2.629.68 3.806 0l7.161-4.134a3.816 3.816 0 0 0 1.903-3.296v-8.434a3.816 3.816 0 0 0-1.903-3.296l-7.16-4.135a3.81 3.81 0 0 0-1.904-.51zm4.89 11.91h-1.662a.468.468 0 0 0-.405.234l-.863 1.493a.468.468 0 0 0 0 .468L19 19.936a13.072 13.072 0 0 0 1.895-3.987zm-1.661-.78h1.856c.176-.82.274-1.653.291-2.491a.468.468 0 0 0-.244-.421l-2.096-1.144-1.074 1.861a.468.468 0 0 0 0 .468l.862 1.493a.468.468 0 0 0 .405.234zm-4.106 2.35h1.758a.467.467 0 0 0 .405-.233l.862-1.493a.468.468 0 0 0 0-.468l-.862-1.493a.468.468 0 0 0-.405-.234h-1.758a.468.468 0 0 0-.406.234l-.861 1.493a.468.468 0 0 0 0 .468l.861 1.493a.468.468 0 0 0 .406.234zm-2.349-2.35a.47.47 0 0 0 .406-.234l.861-1.493a.468.468 0 0 0 0-.468l-1.074-1.861-2.097 1.144a.468.468 0 0 0-.243.421c.017.838.115 1.672.291 2.491h1.856zm3.452-5.59a.468.468 0 0 0-.448 0l-2.126 1.16 1.066 1.845a.468.468 0 0 0 .405.234h1.758a.467.467 0 0 0 .405-.234l1.066-1.845-2.126-1.16zm-5.114 6.37a13.072 13.072 0 0 0 1.895 3.987l1.035-1.792a.468.468 0 0 0 0-.468l-.862-1.493a.468.468 0 0 0-.405-.234h-1.663zm4.01 2.351a.468.468 0 0 0-.405.234l-1.2 2.08a13.21 13.21 0 0 0 2.199 2.159.47.47 0 0 0 .573 0 13.21 13.21 0 0 0 2.198-2.16l-1.2-2.079a.468.468 0 0 0-.405-.234h-1.76z" fill="#FFF"/></svg>
